app/[lang]/(home)/(new-home)/assets/platform-icons/railway.svg

<svg width="24" height="25" viewBox="0 0 24 25" fill="none" xmlns="http://www.w3.org/2000/svg">
<path d="M1.68751 10.8343C1.63793 11.1819 1.60566 11.5317 1.59082 11.8825H17.4041C17.3488 11.7746 17.2746 11.6774 17.1998 11.5822C14.4965 8.08956 13.0422 8.39239 10.962 8.30366C10.2684 8.27514 9.79806 8.26367 7.03739 8.26367C5.55981 8.26367 3.95346 8.26743 2.38921 8.2716C2.18671 8.81817 1.99142 9.34795 1.89633 9.77892H9.99958V10.8343H1.68751ZM17.5287 12.9389H1.59893C1.6156 13.2205 1.64187 13.4984 1.67981 13.7725H16.3869C17.0425 13.7725 17.4095 13.4005 17.5287 12.9389ZM2.50605 16.6515C2.50605 16.6515 4.94419 22.6382 11.9892 22.7445C16.1999 22.7445 19.818 20.2437 21.4614 16.6515H2.50605Z" fill="white"/>
<path d="M11.9886 1.92529C8.09525 1.92529 4.70729 4.06327 2.91817 7.22373C4.31633 7.2208 7.03929 7.21913 7.03929 7.21913H7.03992V7.2181C10.2585 7.2181 10.3781 7.23247 11.0068 7.25872L11.3961 7.27307C12.7522 7.31829 14.419 7.46385 15.7304 8.45612C16.4423 8.99429 17.4702 10.1821 18.0829 11.0284C18.6493 11.8111 18.8123 12.7109 18.4271 13.5729C18.0726 14.3652 17.3099 14.8378 16.3863 14.8378H1.92969C1.92969 14.8378 2.01575 15.2026 2.14479 15.6053H21.8785C22.2289 14.5519 22.408 13.4492 22.409 12.3391C22.4092 6.58825 17.7438 1.92529 11.9886 1.92529Z" fill="white"/>
</svg>

<svg xmlns="http://www.w3.org/2000/svg" fill="none" viewBox="0 0 24 25">
  <path
    fill="#fff"
    d="M1.69 10.83c-.05.35-.08.7-.1 1.05H17.4a1.9 1.9 0 0 0-.2-.3C14.5 8.1 13.04 8.4 10.96 8.3c-.7-.02-1.16-.04-3.92-.04l-4.65.01c-.2.55-.4 1.08-.5 1.5H10v1.06H1.69Zm15.84 2.1H1.6c.02.29.04.57.08.84h14.7c.66 0 1.03-.37 1.15-.83ZM2.5 16.66s2.43 5.99 9.48 6.1c4.21 0 7.83-2.5 9.47-6.1H2.51Z"
  />
  <path
    fill="#fff"
    d="M11.99 1.93c-3.9 0-7.28 2.13-9.07 5.3l4.12-.01c3.22 0 3.34.01 3.97.04l.39.01c1.35.05 3.02.2 4.33 1.19.71.53 1.74 1.72 2.35 2.57.57.78.73 1.68.35 2.54a2.16 2.16 0 0 1-2.04 1.27H1.93l.21.77h19.74a10.42 10.42 0 0 0-9.89-13.68Z"
  />
</svg>
